X:230
T:Queen Of The Fair
R:jig
M:6/8
L:1/8
K:Dmaj
~F3 DA,A,|DFA dAF|~G3 FGA|BAG FGE|
~F3 DA,A,|DFA dAF|~G3 EAG|1 FDD D2E:|2 FDD D2g||
|:fdf ece|dAG FEF|~D3 dAF|GFG E2g|
fdf ece|dAG FED|EFG BAG|1 FDD D2g:|2 FDD D3||
|:Add fdd|add fdd|Ace ~g3|~f3 ecA|
[1 Add fdd|add fdd|EFG BAG|FDD D3:|
[2 ~a3 geg|fdf ecA|EFG BAG|FGE D2E||

